icons/svg/margin.svg

﻿<?xml version="1.0" encoding="utf-8"?>
<!DOCTYPE svg PUBLIC "-//W3C//DTD SVG 1.1//EN" "http://www.w3.org/Graphics/SVG/1.1/DTD/svg11.dtd">
<svg xmlns="http://www.w3.org/2000/svg" xmlns:xlink="http://www.w3.org/1999/xlink" version="1.1" baseProfile="full" width="24" height="24" viewBox="0 0 24.00 24.00" enable-background="new 0 0 24.00 24.00" xml:space="preserve">
	<path fill="#000000" fill-opacity="1" stroke-width="0.2" stroke-linejoin="round" d="M 14.634,6.77756L 12.9019,5.77756L 18.5,2.08141L 18.0981,8.77756L 16.366,7.77756L 8.73204,21L 6.42264,21L 14.634,6.77756 Z M 17.5,12C 19.433,12 21,13.7386 21,16.5C 21,19.2614 19.433,21 17.5,21C 15.567,21 14,19.2614 14,16.5C 14,13.7386 15.567,12 17.5,12 Z M 17.5,14C 16.6716,14 16,14.8431 16,16.5C 16,18.1569 16.6716,19 17.5,19C 18.3284,19 19,18.1569 19,16.5C 19,14.8431 18.3284,14 17.5,14 Z M 7.5,5.00001C 9.43299,5.00001 11,6.73858 11,9.5C 11,12.2614 9.433,14 7.5,14C 5.567,14 4,12.2614 4,9.5C 4,6.73858 5.567,5.00001 7.5,5.00001 Z M 7.5,7.00001C 6.67157,7.00001 6,7.84315 6,9.5C 6,11.1569 6.67157,12 7.5,12C 8.32843,12 9,11.1569 9,9.5C 9,7.84315 8.32842,7.00001 7.5,7.00001 Z "/>
</svg>

<svg xmlns="http://www.w3.org/2000/svg" version="1.1" baseProfile="full" width="24" height="24" viewBox="0 0 24.00 24.00" xml:space="preserve"><path fill="#000" fill-opacity="1" stroke-width=".2" stroke-linejoin="round" d="M14.634 6.778l-1.732-1L18.5 2.08l-.402 6.698-1.732-1L8.732 21h-2.31l8.212-14.222zM17.5 12c1.933 0 3.5 1.74 3.5 4.5S19.433 21 17.5 21 14 19.26 14 16.5s1.567-4.5 3.5-4.5zm0 2c-.828 0-1.5.843-1.5 2.5s.672 2.5 1.5 2.5 1.5-.843 1.5-2.5-.672-2.5-1.5-2.5zm-10-9C9.433 5 11 6.74 11 9.5S9.433 14 7.5 14 4 12.26 4 9.5 5.567 5 7.5 5zm0 2C6.672 7 6 7.843 6 9.5S6.672 12 7.5 12 9 11.157 9 9.5 8.328 7 7.5 7z"/></svg>
